X: 11001
Q: "Moderate."
M: C
L: 1/8
K: G
(BA)(GF) E2ze | (ed)(^cB) A3 B |\
(^cd)(ef) g2e2 | {g}f4 ({e}d3^c) |\
(fgaf) d2=c2 | B2(dB) G3F |\
E2e2 (dc)(Bc/A/) | (G4 {AG}F2)D2 |\
(EG)(cB) (cE)(FG) | (FG) (d^c) (dA)(B=c) |\
(Bd)(gf) (gd)(eB) | {d}c4 (d3c) |\
(BG)(AB) (cE)(AF) | {A}G4 z2 |]


